X:1
T:Title
%%score { ( 1 3 5 ) | ( 2 4 ) }
L:1/8
Q:1/4=108
M:6/8
K:Bb
V:1 treble nm="Grand Piano"
V:3 treble 
V:5 treble 
V:2 bass 
V:4 bass 
V:1
 [Fd]3 [Ec]3 | [DB]3 [DA][DB][DA] | [DG]3 D3 | D3 D_D=D | F3 C3 | A3 GAG | [DF]3 [B,D]3 | .B6 | %8
w: Charles~H.~Gabriel *||||||||
 [Fd]3[K:bass][K:treble] [Fd]3 | z3 .B3 | [EB]2 [EA] [EA]2 [EA] | E- [E-G]2 [E-B][Ec]d | [Ae]3 e3 | %13
w: |||||
 [Ae]3 [Ec][Fd][Ec] | [Ec]2 [DB] [DB]2 [Ec] | d6 | [Fd]3[K:bass][K:treble] z3 | %17
w: ||||
 [Fd]3 .[B,FB]2 [B,FB] | [B,EG]2 [Ge] [Ge]2 [Ge] | z AB cde | d2 F/F/ FFF | c2 F/F/ FFF | %22
w: |||||
 [B,DB]2 [G,E] [DB]2 _D | [DB]6 |] %24
w: ||
V:2
 [B,,B,]3 [B,,F,]3 | [B,,F,]3 [B,,^F,][B,,F,][B,,F,] | [B,,G,]3 [B,,G,B,]3 | %3
 [B,,G,B,]3 [B,,F,B,]2 [B,,F,B,] | [C,F,A,]3 [C,F,A,]3 | [F,CE]3 [F,A,E][F,CE][F,A,E] | %6
 [B,,B,]3 [B,,F,]3 | [B,,F,]6 | .[B,,B,]3 .[D,B,]3 | [B,F]3 [B,,F,]2 [B,,F,] | %10
 [C,F,]2 [C,F,] [C,F,]2 [C,F,] | [C,F,]6 | .[F,C]3 .[A,CA]3 | [F,C]3 [F,A,]2 [F,A,] | %14
 [B,,F,]2 [B,,F,] [B,,F,]2 [B,,F,] | [B,,B,]6 | .[B,,B,]3 B,2- [F,B,] | %17
 B,3 z[K:treble] c[K:bass]D, | E,2 [E,B,] [E,B,]2 [E,B,] | [E,B,]6 | .[F,B,F]3 z3 | .[F,A,E]3 z3 | %22
 B,,2 B,, [B,,F,]2 [B,,^F,] | [B,,F,]6 |] %24
V:3
 x6 | x6 | x6 | x6 | x6 | x6 | x6 | D-[D-F][D-G] [D-A][DB]c | z2[K:bass] B,,[K:treble] z2 F, | %9
 d3 D-[Dc][EB] | x6 | A2 A- A2 z | z2 F, z2 C | x6 | x6 | .F2 G ABc | %16
 z2[K:bass] B,,[K:treble] [Fd]3 | x6 | x6 | [Ge]6 | x6 | x6 | x6 | x6 |] %24
V:4
 x6 | x6 | x6 | x6 | x6 | x6 | x6 | x6 | x6 | x6 | x6 | z3 .F,,3 | x6 | x6 | x6 | x6 | z3 .D,3 | %17
 z3 .D,3[K:treble][K:bass] | x6 | x6 | x6 | x6 | x6 | x6 |] %24
V:5
 x6 | x6 | x6 | x6 | x6 | x6 | x6 | x6 | x2[K:bass] x[K:treble] x3 | x6 | x6 | x6 | x6 | x6 | x6 | %15
 z F2- F2 z | x2[K:bass] x[K:treble] x3 | x6 | x6 | x6 | x6 | x6 | x6 | x6 |] %24

